X:1
T:Prussia, 87.87
T:Prussia, 87.87
T:German Tune
T:Public Domain Courtesy of the Cyber Hymnal™
C:German Tune
Z:Public Domain
Z:Courtesy of the Cyber Hymnal™
%%score ( 1 2 ) ( 3 4 ) ( 5 6 )
L:1/8
Q:1/4=118
M:3/4
K:G
V:1 treble 
V:2 treble 
V:3 treble 
V:4 treble 
V:5 bass 
V:6 bass 
V:1
 ([B,D]2 [CE]2) [B,D]2 | [DB]4 [DG]2 | (F2 E2) [CF]2 | [B,G]4 [B,D]2 | ([B,D]2 [DG]2) [GB]2 | %5
 (A2 d2) [DF]2 | (A2 G2) [=CE]2 | D4 z2 | ([CA]2 [DB]2) [CA]2 | [B,G]4 [B,D]2 | %10
 ([CA]2 [DB]2) [CA]2 | [B,G]4 [B,D]2 | (D2 B2) [EG]2 | (E2 c2) [EA]2 | ([DF]2 !fermata![Fd]2) F2 | %15
 [B,G]4 z2 |] %16
V:2
 x6 | x6 | C4 x2 | x6 | x6 | F4 x2 | ^C4 x2 | D4 x2 | x6 | x6 | x6 | x6 | D4 x2 | E4 x2 | x4 DC | %15
 x6 |] %16
V:3
 ([B,D]2 [CE]2) [B,D]2 | [DB]4 [DG]2 | ([DF]2 E2) [CDF]2 | [B,DG]4 [B,D]2 | ([B,D]2 [DG]2) [DGB]2 | %5
 (A2 d2) [DF]2 | (A2 G2) [A,=CE]2 | [A,D]4 z2 | ([CA]2 [DB]2) [CA]2 | [B,G]4 [B,D]2 | %10
 ([CA]2 [DB]2) [CA]2 | [B,G]4 [B,D]2 | (D2 B2) [DG]2 | (D2 [EA]2) x2 | (F2 !fermata![Fd]2) [CDF]2 | %15
 [B,DG]4 z2 |] %16
V:4
 x6 | x6 | C4 x2 | x6 | x6 | [DF]4 x2 | ^C4 x2 | x6 | x6 | x6 | x6 | x6 | D4 x2 | D4 c2 | D4 x2 | %15
 x6 |] %16
V:5
 [G,,G,]4 [G,,G,]2 | [G,,G,]4 [B,,G,]2 | (A,2 G,2) [D,A,]2 | [G,,G,]4 [G,,G,]2 | G,4 [G,,G,]2 | %5
 [A,,A,]4 [A,,A,]2 | [A,,E,]4 [A,,G,]2 | [D,,D,F,]4 z2 | [D,F,]4 [D,F,]2 | [G,,D,G,]4 [G,,D,G,]2 | %10
 [F,,D,]4 [D,F,]2 | [G,,D,G,]4 [G,,G,]2 | G,4 [B,,G,]2 | ([C,G,]2 [A,,A,]2) [C,A,]2 | %14
 (A,2 !fermata![A,C]2) [D,A,]2 | [G,,G,]4 z2 |] %16
V:6
 x6 | x6 | D,4 x2 | x6 | (G,,2 B,,2) x2 | x6 | x6 | x6 | x6 | x6 | x6 | x6 | (B,,2 G,,2) x2 | x6 | %14
 D,4 x2 | x6 |] %16

